X: 34176
T: Reel Of Bogie, The
R: reel
M: 4/4
K: Amixolydian
Bd|eA (3.A.c.A edBd|eAAF GABd|eA (3.A.c.A edBd|(3.g.f.e dB ABcd|
eA (3.A.c.A edBd|eA (3.A.c.A GBde|eA (3.A.c.A eA (3.A.c.A|(3.g.f.e dB AcBA|
~G2Bd "tr"g3e|dedB dedB|~G2Bd "tr"gbaf|(3.g.f.e dB AcBA|
~G2Bd "tr"g3e|dedB dega|bgag e~a2f|(3.g.f.e dB A2|

